X: 2
T: Polska efter J.O. Löfvén
M: 3/4
L: 1/16
K: Bb
Q: 120
|: B,2B,A, B,2D2 F4| B2BA B2d2 f4| e2ed c2cB A2AG| FBAB cBAG FEDC|
B,2B,A, B,2D2 F4| B2BA B2d2 f4| e2ed c2cB A2AG| FBAB c4 B4 ::  c2c=B c2cd e2cA|
B2BA B2d2 f4|  c2c=B cBcd ecAF| B2BA Bcde f3f| g2g^f g2b2 B2b2|
f2f=e f2b2 B2b2| g2g^f gfga b2b2| f2f=e fefa b2b2|  e3c d3B c2A2| FecA c4 B4:|

